Papirus/48x48/apps/vroid-studio.svg

<svg width="48" height="48" version="1.1" xmlns="http://www.w3.org/2000/svg">
 <path d="m3.1623334 24.124586c1.7448582-3.011336 8.5575696-14.756115 10.301368-17.768135 0.213184-0.3682264 0.728706-0.6664586 1.15197-0.6655399 3.417019 0.00736 16.600538 0.040995 20.017308 0.047491 0.42326 8.088e-4 0.937251 0.3007312 1.146673 0.6711502 1.710332 3.0251819 8.354413 14.836716 10.064242 17.86171 0.209371 0.370416 0.20832 0.969186-0.0043 1.337765-1.710411 2.965241-8.294326 14.35226-10.005749 17.316748-0.212731 0.368485-0.727971 0.668304-1.151234 0.67004-3.475951 0.01425-17.087388 0.08177-20.563524 0.09509-0.423249 0.0016-0.935747-0.298226-1.143815-0.669418-1.679136-2.995525-8.1418882-14.56294-9.8214349-17.558534-0.2080994-0.37116-0.2048681-0.970201 0.0084486-1.338359z" style="opacity:.2"/>
 <path d="m3.1623334 22.948585c1.7448582-2.932091 8.5575696-14.3678 10.301368-17.300557 0.213184-0.3585364 0.728706-0.6489195 1.15197-0.6480258 3.417019 0.00717 16.600538 0.039917 20.017308 0.046231 0.42326 7.885e-4 0.937251 0.2928174 1.146673 0.6534895 1.710332 2.9455727 8.354413 14.446278 10.064242 17.391668 0.209371 0.360668 0.20832 0.943681-0.0043 1.302561-1.710411 2.887208-8.294326 13.974573-10.005749 16.861048-0.212731 0.358789-0.727971 0.650717-1.151234 0.652407-3.475951 0.01387-17.087388 0.07962-20.563524 0.09259-0.423249 0.0016-0.935747-0.290378-1.143815-0.651803-1.679136-2.916697-8.1418882-14.179709-9.8214349-17.096472-0.2080994-0.361392-0.2048681-0.944669 0.0084486-1.303139z" style="fill:#fecd38"/>
 <path d="m22.014102 34.859325 11.17046-17.345676c0.227717-0.353602 0.674851-0.588365 1.11308-0.491854l4.602006 1.013499c0.08228 0.0103 0.126284 0.09371 0.08368 0.158583l-9.771034 16.193175c-0.222492 0.368727-0.663738 0.582462-1.12547 0.584646l-5.983625 0.0283c-0.07956 3.74e-4 -0.12933-0.0782-0.0891-0.140671z" style="fill:#feb924"/>
 <path d="m11.042442 18.741845 2.705629-4.075179c0.365359-0.550298 0.512378-0.666671 0.703246-0.666666l4.677332 1.33e-4c0.419675-0.0061 0.70106 0.325479 0.94863 0.666533l4.922721 6.781553-3.208208 4.366356c-0.190911 0.259831-0.582638 0.243845-0.751944-0.03068l-4.133551-6.702604c-0.01336-0.02168-0.03678-0.03504-0.06215-0.03547l-5.781028-0.100491c-0.103079-0.07853-0.05726-0.08838-0.02068-0.203485z" style="fill:#feb924"/>
 <path d="m14.451172 14c-0.190868-5e-6 -0.337766 0.115718-0.703125 0.666016l-2.705078 4.076172c-0.03658 0.115104-0.083548 0.124595 0.019531 0.203124l0.503906 0.007813 2.181641-3.287109c0.365359-0.550298 0.512257-0.666021 0.703125-0.666016h4.677734c0.419675-0.0061 0.701649 0.324962 0.949219 0.666016l4.556641 6.277343 0.365234-0.496093-4.921875-6.78125c-0.24757-0.341054-0.529544-0.672116-0.949219-0.666016h-4.677734z" style="fill:#000001;opacity:.2"/>
 <path d="m33.859375 18.505859c-0.436914-0.0036-0.844446 0.20572-1.076172 0.552735l-10.490234 15.748047c-0.05953 0.08389-0.149892 0.144366-0.253907 0.169921 0.01753 0.0134 0.03847 0.02356 0.06445 0.02344l0.728515-0.0039 9.951172-14.9375c0.231726-0.347015 0.639258-0.556329 1.076172-0.552735l4.3125 0.03125s0.828129-1.345898 0.828129-1.388867c0.0039 0.101562-0.05274-0.150195-0.05274-0.150195-0.0013 7e-6 -0.0026 7e-6 -0.0039 0z" style="opacity:.2"/>
 <path d="m11.391417 18.447994 5.413067-0.03729a1.2267193 1.1492066 0 0 1 1.063348 0.561715l3.844213 6.054946a0.43136225 0.40410574 0 0 0 0.735454 0.0092l7.071847-10.489535a1.2530475 1.1738711 0 0 1 1.079325-0.546883l4.911713 0.07303a1.3244874 1.2407969 0 0 1 1.088151 0.562501l2.340123 3.359106a0.37733583 0.3534931 0 0 1-0.319062 0.546678l-4.761129-0.03626a1.2563903 1.1770027 0 0 0-1.076133 0.553904l-10.488542 15.747585a0.43844409 0.4107401 0 0 1-0.744238-4.38e-4l-10.490035-15.793714a0.39431603 0.36940036 0 0 1 0.331898-0.564545z" style="fill:#feffff"/>
 <path d="m14.614362 5.0000021c-0.42352-9.13e-4 -0.938602 0.2948186-1.151916 0.6610747-1.744858 2.9959058-8.5830857 14.542582-10.329007 17.537806-0.1500374 0.257398-0.1579749 0.475264-0.099849 0.801117 0.025395-0.147478 0.00517-0.261818 0.072752-0.377743 1.7459217-2.995225 8.61125-14.417331 10.356109-17.413236 0.213314-0.3662572 0.728396-0.663352 1.151916-0.6624389 3.4191 0.00736 16.611679 0.041252 20.03053 0.047709 0.423517 8.039e-4 0.936919 0.2994524 1.146469 0.6678904 1.711374 3.0089965 8.256556 14.006963 9.967424 17.015771 0.0629 0.110616 0.201994 0.297956 0.226906 0.437176 0.05501-0.319454-0.01301-0.390524-0.156835-0.643453-1.7304-3.004902-8.326121-14.348441-10.037495-17.357436-0.20955-0.3684381-0.722953-0.6670916-1.146469-0.6678904-3.418851-0.0064579-16.61143-0.0389761-20.03053-0.0463381z" style="fill:#ffffff;opacity:.2"/>
 <path d="m38.519013 18.953125-9.308906 15.433594c-0.222406 0.368726-0.664965 0.583753-1.126518 0.585937l-6.054304 0.02539-0.01561 0.861328c-0.04021 0.06247 0.01028 0.140999 0.08981 0.140625l5.980113-0.02734c0.461553-0.0022 0.904112-0.217211 1.126518-0.585937l9.765761-16.19336c0.04258-0.06487 0.01397-0.968218 0.01757-1.193362-0.141703 0.325016-0.246153 0.666588-0.474434 0.953125z" style="fill:#fffffe;opacity:.2"/>
</svg>

<svg xmlns="http://www.w3.org/2000/svg" width="48" height="48" version="1.1">
 <path style="opacity:0.2" d="M 3.1623,23.949 C 4.9072,21.016 11.72,9.5808 13.464,6.648 13.677,6.2895 14.192,5.9991 14.616,6 18.033,6.0072 31.216,6.0399 34.633,6.0462 35.056,6.047 35.57,6.3391 35.78,6.6997 37.49,9.6453 44.134,21.146 45.844,24.091 46.053,24.452 46.052,25.035 45.84,25.394 44.129,28.281 37.545,39.369 35.834,42.255 35.621,42.614 35.106,42.906 34.683,42.907 31.207,42.921 17.595,42.987 14.119,43 13.696,43.002 13.183,42.71 12.975,42.348 11.296,39.431 4.8334,28.168 3.1538,25.252 2.9457,24.89 2.949,24.307 3.1623,23.949 Z"/>
 <path style="fill:#fecd38" d="M 3.1623,22.949 C 4.9072,20.016 11.72,8.5808 13.464,5.648 13.677,5.2895 14.192,4.9991 14.616,5 18.033,5.0072 31.216,5.0399 34.633,5.0462 35.056,5.047 35.57,5.3391 35.78,5.6997 37.49,8.6453 44.134,20.146 45.844,23.091 46.053,23.452 46.052,24.035 45.84,24.394 44.129,27.281 37.545,38.369 35.834,41.255 35.621,41.614 35.106,41.906 34.683,41.907 31.207,41.921 17.595,41.987 14.119,42 13.696,42.002 13.183,41.71 12.975,41.348 11.296,38.431 4.8334,27.168 3.1538,24.252 2.9457,23.89 2.949,23.307 3.1623,22.949 Z"/>
 <path style="fill:#feb924" d="M 22.014,34.859 33.185,17.514 C 33.412,17.16 33.859,16.925 34.298,17.022 L 38.9,18.035 C 38.982,18.046 39.026,18.129 38.983,18.194 L 29.212,34.387 C 28.99,34.756 28.549,34.97 28.087,34.972 L 22.103,35 C 22.024,35 21.974,34.922 22.014,34.859 Z"/>
 <path style="fill:#feb924" d="M 11.042,18.742 13.748,14.667 C 14.113,14.116 14.26,14 14.451,14 H 19.129 C 19.548,13.994 19.83,14.326 20.077,14.667 L 25,21.448 21.792,25.815 C 21.601,26.074 21.209,26.058 21.04,25.784 L 16.906,19.081 C 16.893,19.06 16.87,19.046 16.844,19.046 L 11.063,18.945 C 10.96,18.867 11.006,18.857 11.042,18.742 Z"/>
 <path style="opacity:0.2;fill:#000001" d="M 14.451,14 C 14.26,14 14.113,14.116 13.748,14.666 L 11.043,18.742 C 11.006,18.857 10.959,18.867 11.063,18.945 L 11.566,18.953 13.748,15.666 C 14.113,15.116 14.26,15 14.451,15 H 19.129 C 19.549,14.994 19.831,15.325 20.078,15.666 L 24.635,21.943 25,21.447 20.078,14.666 C 19.831,14.325 19.549,13.994 19.129,14 Z"/>
 <path style="opacity:0.2" d="M 33.859,18.506 C 33.422,18.502 33.015,18.712 32.783,19.059 L 22.293,34.807 C 22.233,34.891 22.143,34.951 22.039,34.977 22.057,34.99 22.078,35 22.104,35 L 22.832,34.996 32.783,20.059 C 33.015,19.712 33.422,19.502 33.859,19.506 L 38.172,19.537 C 38.172,19.537 39,18.191 39,18.148 39.004,18.25 38.947,17.998 38.947,17.998 38.946,17.998 38.945,17.998 38.943,17.998 Z"/>
 <path style="fill:#feffff" d="M 11.391,18.448 16.804,18.411 A 1.2267,1.1492 0 0 1 17.868,18.972 L 21.712,25.027 A 0.43136,0.40411 0 0 0 22.447,25.037 L 29.519,14.547 A 1.253,1.1739 0 0 1 30.599,14 L 35.51,14.073 A 1.3245,1.2408 0 0 1 36.599,14.636 L 38.939,17.995 A 0.37734,0.35349 0 0 1 38.62,18.541 L 33.858,18.505 A 1.2564,1.177 0 0 0 32.782,19.059 L 22.294,34.807 A 0.43844,0.41074 0 0 1 21.55,34.806 L 11.06,19.013 A 0.39432,0.3694 0 0 1 11.391,18.448 Z"/>
 <path style="opacity:0.2;fill:#fffffe" d="M 38.519,18.953 29.21,34.387 C 28.988,34.755 28.545,34.97 28.084,34.973 L 22.029,34.998 22.014,35.859 C 21.973,35.922 22.024,36 22.103,36 L 28.084,35.973 C 28.545,35.97 28.988,35.755 29.21,35.387 L 38.976,19.193 C 39.018,19.128 38.99,18.225 38.993,18 38.852,18.325 38.747,18.667 38.519,18.953 Z"/>
 <path style="opacity:0.2;fill:#ffffff" d="M 14.615,5 C 14.192,4.9991 13.676,5.2899 13.463,5.6484 11.719,8.5812 4.907,20.017 3.1621,22.949 2.9739,23.266 2.9599,23.748 3.0996,24.107 3.1203,24.054 3.1343,23.996 3.1621,23.949 4.907,21.016 11.721,9.5812 13.465,6.6484 13.678,6.2899 14.191,5.9991 14.615,6 18.032,6.0072 31.216,6.0406 34.633,6.0469 35.056,6.0477 35.569,6.3386 35.779,6.6992 37.489,9.6448 44.134,21.147 45.844,24.092 45.869,24.136 45.881,24.191 45.9,24.24 46.039,23.883 46.027,23.407 45.844,23.092 44.134,20.146 37.49,8.6448 35.779,5.6992 35.57,5.3385 35.056,5.0477 34.633,5.0469 31.216,5.0406 18.032,5.0072 14.615,5 Z"/>
</svg>
